X: 49
T: No_5_Song_of_the_Duck_Dance_(c).krn
N: Derived from No_5_Song_of_the_Duck_Dance_(c).krn
%%abc-version 2.0
%%abcx-abcm2ps-target-version 5.9.1 (29 Sep 2008)
%%abc-creator hum2abc beta
%%abcx-conversion-date 2019/03/15 08:35:01
%%humdrum-veritas 141935372
%%humdrum-veritas-data 2732057968
%%linebreak <none>
%%barnumbers 0
L: 1/16
M: 3/4
K: Bb clef=bass
[K:clef=bass][M:3/4]DCB,G, B,2B,C B,2B, z | 
DCB,G, G,2(G,B,) G,2B, z | 
DCB,G, B,2(B,C) B,2B, z | 
DCB,G, G,2(G,B,) G,2B, z | 
DD(DC) B,2(B,C) B,2B, z | 
CCB,G, G,2(G,B,) G,2G, z | 
DCB,G, B,2CB, B,2 (B,/G,/) z | 
DCB,G, G,2G,G, G,2G, z | 
DCB,C B,2G,B, B,2B, z | 
DCB,G, G,2(G,B,) G,2B, z | 
DD (3DCD B,2B,A, B,2B, z | 
DCB,G, G,2G,G, G,2G, z | 
DCB,C B,2CB, B,2B, z | 
DCB,G, G,2(G,B,) G,2B, z | 
DD(DC) (DC)B,G, (A,G,)G, z | 
DCB,G, B,2G,B, G,2B, z | 
DCB,G, G,2G,B, G,2B, z | 
DCB,C B,2B,C B,2B, z | 
DCB,G, G,2G,B, G,2B, z | 
DD(DC) (DC)B,G, (B,G,)G, z | 
DCB,G, B,2(G,B,) G,2B, z | 
DCB,C B,2B,C B,2 z2 |]  



